images/direction-2.svg

<svg width="135" height="138" viewBox="0 0 135 138" fill="none" xmlns="http://www.w3.org/2000/svg">
<path opacity="0.5" d="M14 50H32V69H14V50Z" fill="#2A94E2"/>
<path opacity="0.5" d="M49 50H68V69H49V50Z" fill="#2A94E2"/>
<path opacity="0.5" d="M105 75H122V92H105V75Z" fill="#2A94E2"/>
<path d="M81.7544 2V137H52.6828V119.202C52.6827 118.355 51.9133 117.584 51.0677 117.584H31.6867C30.6169 117.62 30.0964 118.592 30.0716 119.202V137H1V39.3146L81.7544 2ZM92.0077 30.2135H134V137H92.0077V30.2135ZM104.928 43.1573H121.079V59.337H104.928V43.1573ZM13.9207 49.6292H33.3017V69.045H13.9207V49.6292ZM49.4526 49.6292H68.8337V69.045H49.4526V49.6292ZM104.928 75.5169H121.079V91.6967H104.928V75.5169ZM13.9207 85.2248H33.3017V104.64H13.9207V85.2248ZM49.4526 85.2248H68.8337V104.64H49.4526V85.2248ZM104.928 107.876H121.079V124.056H104.928V107.876Z" stroke="black" stroke-width="1.8"/>
</svg>

<svg width="135" height="138" fill="none" xmlns="http://www.w3.org/2000/svg"><path opacity=".5" d="M14 50h18v19H14V50zm35 0h19v19H49V50zm56 25h17v17h-17V75z" fill="#2A94E2"/><path d="M81.754 2v135H52.683v-17.798c0-.847-.77-1.618-1.615-1.618H31.687c-1.07.036-1.59 1.008-1.615 1.618V137H1V39.315L81.754 2zm10.254 28.213H134V137H92.008V30.213zm12.92 12.944h16.151v16.18h-16.151v-16.18zM13.921 49.63H33.3v19.416H13.92V49.629zm35.532 0h19.38v19.416h-19.38V49.629zm55.475 25.888h16.151v16.18h-16.151v-16.18zm-91.007 9.708H33.3v19.415H13.92V85.225zm35.532 0h19.38v19.415h-19.38V85.225zm55.475 22.651h16.151v16.18h-16.151v-16.18z" stroke="#000" stroke-width="1.8"/></svg>
